N10 ;Start of Program
N20 ;
N30 ;PART NAME   :C:\Program Files\Siemens\NX 9.0\MACH\resource\library\machine\installed_machines\smc5_mill_3ax\graphics\setup_1.prt
N40 ;DATE TIME   :Sun Feb 15 22:33:07 2015
N50 ;
N60 DEF REAL _camtolerance
N70 DEF REAL _X_HOME, _Y_HOME, _Z_HOME
N80 DEF REAL _F_CUTTING, _F_ENGAGE, _F_RETRACT
N90 ;
N100 G40 G17 G710 G90 G60 G601 FNORM
N110 ;Start of Path
N120 ;
N130 ;TECHNOLOGY: MILL_ROUGH
N140 ;TOOL NAME : MILL
N150 ;TOOL TYPE : Milling Tool-5 Parameters
N160 ;TOOL DIAMETER     : 16.000000
N170 ;TOOL LENGTH       : 75.000000
N180 ;TOOL CORNER RADIUS: 0.000000
N190 ;
N200 ;Intol     : 0.080000
N210 ;Outtol    : 0.080000
N220 ;Stock     : 1.000000
N230 _camtolerance=0.160000
N240 _X_HOME=0.0 _Y_HOME=0.0 _Z_HOME=0.0
N250 ;
N260 ;
N270 ;Operation : FLOOR_WALL
N280 ;
N290 TRAFOOF
N300 SUPA G0 Z=_Z_HOME D0
N310 SUPA G0 X=_X_HOME Y=_Y_HOME D1
N320 ;First Tool
N330 T="MILL"
N340 M6
N350 MSG("MILL_ROUGH")
N360 TRAFOOF
N370 SUPA G0 Z=_Z_HOME D0
N380 SUPA G0 X=_X_HOME Y=_Y_HOME D1
N390 ;
N400 ;Initial Move
N410 CYCLE832(_camtolerance,0,1)
N420 TRAFOOF
N430 G54
N440 G0 X-111. Y49.992 S4974 D1 M3
N450 Z13.
N460 ;Approach Move
N470 Z3.
N480 ;Engage Move
N490 G1 Z0.0 M8 F3979.
N500 X-108.
N510 ;Cutting
N520 X108.
N530 ;Retract Move
N540 X111.
N550 Z3.
N560 ;Departure Move
N570 G0 Z13.
N580 X-111. Y38.293
N590 ;Approach Move
N600 Z3.
N610 ;Engage Move
N620 G1 Z0.0
N630 X-108.
N640 ;Cutting
N650 X108.
N660 ;Retract Move
N670 X111.
N680 Z3.
N690 ;Departure Move
N700 G0 Z13.
N710 X-111. Y26.594
N720 ;Approach Move
N730 Z3.
N740 ;Engage Move
N750 G1 Z0.0
N760 X-108.
N770 ;Cutting
N780 X108.
N790 ;Retract Move
N800 X111.
N810 Z3.
N820 ;Departure Move
N830 G0 Z13.
N840 X-111. Y14.895
N850 ;Approach Move
N860 Z3.
N870 ;Engage Move
N880 G1 Z0.0
N890 X-108.
N900 ;Cutting
N910 X108.
N920 ;Retract Move
N930 X111.
N940 Z3.
N950 ;Departure Move
N960 G0 Z13.
N970 X-111. Y3.196
N980 ;Approach Move
N990 Z3.
N1000 ;Engage Move
N1010 G1 Z0.0
N1020 X-108.
N1030 ;Cutting
N1040 X108.
N1050 ;Retract Move
N1060 X111.
N1070 Z3.
N1080 ;Departure Move
N1090 G0 Z13.
N1100 X-111. Y-8.503
N1110 ;Approach Move
N1120 Z3.
N1130 ;Engage Move
N1140 G1 Z0.0
N1150 X-108.
N1160 ;Cutting
N1170 X108.
N1180 ;Retract Move
N1190 X111.
N1200 Z3.
N1210 ;Departure Move
N1220 G0 Z13.
N1230 X-111. Y-20.202
N1240 ;Approach Move
N1250 Z3.
N1260 ;Engage Move
N1270 G1 Z0.0
N1280 X-108.
N1290 ;Cutting
N1300 X108.
N1310 ;Retract Move
N1320 X111.
N1330 Z3.
N1340 ;Departure Move
N1350 G0 Z13.
N1360 X-111. Y-31.901
N1370 ;Approach Move
N1380 Z3.
N1390 ;Engage Move
N1400 G1 Z0.0
N1410 X-108.
N1420 ;Cutting
N1430 X108.
N1440 ;Retract Move
N1450 X111.
N1460 Z3.
N1470 ;Departure Move
N1480 G0 Z13.
N1490 X-111. Y-43.6
N1500 ;Approach Move
N1510 Z3.
N1520 ;Engage Move
N1530 G1 Z0.0
N1540 X-108.
N1550 ;Cutting
N1560 X108.
N1570 ;Retract Move
N1580 X111.
N1590 Z3.
N1600 ;Departure Move
N1610 G0 Z13.
N1620 ;End of Path
N1630 SUPA G0 Z=_Z_HOME D0
N1640 SUPA G0 X=_X_HOME Y=_Y_HOME D1
N1650 CYCLE832()
N1660 M5
N1670 ;End of Program
N1680 M30
